X: 47
T: Pastourelle du GOURAY
M: 4/4
L: 1/8
Q:1/4=60
K:C
|GA/2B/2cc ccce|eccG A2G2|GA/2B/2cc ccce|eccd/2e/2 f2f2|
GA/2B/2cc ccce|eccG A2G2|GA/2B/2cc ccce|eccd/2e/2 f2f2|
Gce2 dcd2|gfee dc/2d/2ec|Gce2 dcd2|gfee dc/2d/2ec|
Gcc2 Gee2|fedc/2d/2 efg2|Gcc2 Gee2|fedc/2d/2 efg2|
dcc|
